X:1
T:Green Hills of Tyrol -- Reel
R:reel
B:Ryan's Mammoth Collection
Z:Contributed by Ray Davies,  ray:davies99.freeserve.co.uk
M:2/4
L:1/16
K:G
v.dc|\
(BG).F.G BGAc | BGDC DB,DC  | B,G,B,D ECEG | FDEF GBdc |
BGFG BGAc     | BGDC B,G,DC | B,G,B,D ECEG | FDEF G2z2::
k((3gfg)|\
.b(gfg) (eg)(dg)|(ca)(Bg) (Af)(Ge)|(Fd)(Ec) (DB)(CA)|(B,G)(A,F) G,B,DF|
GABc dBGB       | ABcA BGDC       | B,G,B,D ECEG    | FDEF G2z2      :|
